round/svg/signal_cellular_alt.svg

<svg xmlns="http://www.w3.org/2000/svg" width="24" height="24"><path fill="none" d="M0 0h24v24H0V0z"/><g fill="currentColor"><path d="M18.5 4c.83 0 1.5.67 1.5 1.5v13c0 .83-.67 1.5-1.5 1.5s-1.5-.67-1.5-1.5v-13c0-.83.67-1.5 1.5-1.5zm-12 10c.83 0 1.5.67 1.5 1.5v3c0 .83-.67 1.5-1.5 1.5S5 19.33 5 18.5v-3c0-.83.67-1.5 1.5-1.5zm6-5c.83 0 1.5.67 1.5 1.5v8c0 .83-.67 1.5-1.5 1.5s-1.5-.67-1.5-1.5v-8c0-.83.67-1.5 1.5-1.5z"/></g></svg>

<?xml version="1.0" encoding="utf-8"?>
<!-- Generator: Adobe Illustrator 19.1.0, SVG Export Plug-In . SVG Version: 6.00 Build 0)  -->
<svg version="1.1" xmlns="http://www.w3.org/2000/svg" xmlns:xlink="http://www.w3.org/1999/xlink" x="0px" y="0px" width="24px"
	 height="24px" viewBox="0 0 24 24" enable-background="new 0 0 24 24" xml:space="preserve">
<g id="Bounding_Boxes">
	<g id="ui_x5F_spec_x5F_header_copy_3">
	</g>
	<path fill="none" d="M0,0h24v24H0V0z"/>
</g>
<g id="Rounded" fill="currentColor">
	<g id="ui_x5F_spec_x5F_header_copy_6">
	</g>
	<path d="M18.5,4L18.5,4C19.33,4,20,4.67,20,5.5v13c0,0.83-0.67,1.5-1.5,1.5h0c-0.83,0-1.5-0.67-1.5-1.5v-13C17,4.67,17.67,4,18.5,4
		z M6.5,14L6.5,14C7.33,14,8,14.67,8,15.5v3C8,19.33,7.33,20,6.5,20h0C5.67,20,5,19.33,5,18.5v-3C5,14.67,5.67,14,6.5,14z M12.5,9
		L12.5,9c0.83,0,1.5,0.67,1.5,1.5v8c0,0.83-0.67,1.5-1.5,1.5h0c-0.83,0-1.5-0.67-1.5-1.5v-8C11,9.67,11.67,9,12.5,9z"/>
</g>
</svg>
